X: 1
T: June Apple
M: 4/4
L: 1/8
R: reel
K: Amix
ageg ageg|aged c2A2|gfef gfef|gfed c2A2|
ageg ageg|aged c2A2|~G3A BAGB|1 ~A3G A2eg:|2 ~A3G A2AB||
|:cdcB ~A3B|c2d2 e2A2|~G3A BABc|d2d2 e3d|
cdcB ~A3B|c2d2 e2A2|~G3A BAGB|1 ~A3G A2AB:|2 ~A3G A2eg||
